svgs/solid/square-arrow-down-right.svg

<svg xmlns="http://www.w3.org/2000/svg" viewBox="0 0 448 512"><!-- Font Awesome Pro 6.0.0-alpha2 by @fontawesome - https://fontawesome.com License - https://fontawesome.com/license (Commercial License) --><path d="M384 32H64C28.654 32 0 60.656 0 96V416C0 451.344 28.654 480 64 480H384C419.346 480 448 451.344 448 416V96C448 60.656 419.346 32 384 32ZM344 344C344 361.688 329.688 376 312 376H168C150.312 376 136 361.688 136 344S150.312 312 168 312H234.75L113.375 190.625C100.875 178.125 100.875 157.875 113.375 145.375S146.125 132.875 158.625 145.375L280 266.75V200C280 182.312 294.312 168 312 168S344 182.312 344 200V344Z"/></svg>

<svg xmlns="http://www.w3.org/2000/svg" viewBox="0 0 448 512"><!--! Font Awesome Pro 6.0.0-alpha3 by @fontawesome - https://fontawesome.com License - https://fontawesome.com/license (Commercial License) --><path d="M384 32H64C28.65 32 0 60.66 0 96v320c0 35.34 28.65 64 64 64h320c35.35 0 64-28.66 64-64V96C448 60.66 419.3 32 384 32zM344 344c0 17.69-14.31 32-32 32h-144c-17.69 0-32-14.31-32-32s14.31-32 32-32h66.75L113.4 190.6c-12.5-12.5-12.5-32.75 0-45.25s32.75-12.5 45.25 0L280 266.8V200c0-17.69 14.31-32 32-32s32 14.31 32 32V344z"/></svg>
